Papirus/48x48/apps/google-chrome.svg

<svg xmlns="http://www.w3.org/2000/svg" width="48" height="48" version="1">
 <circle style="opacity:0.2" cx="24" cy="25" r="20"/>
 <path style="fill:#dd4d3e" d="m 23.968988,4.0002 c -7.005883,0 -13.131287,3.5921141 -16.6939389,9.026461 -0.125881,8.142625 5.0483219,10.980235 8.7992899,15.241998 -0.689964,-1.274331 -1.09236,-2.721571 -1.09236,-4.278754 0,-4.983383 4.038837,-6.442217 8.986509,-6.996327 l 17.848206,-1.99895 C 38.540612,8.4586593 31.798733,4.0003999 23.968488,4.0003999 Z"/>
 <path style="fill:#109f5b" d="m 6.6946205,34.042228 c 3.5029415,6.073211 9.6735775,9.587367 16.1567445,9.957972 6.912823,-3.814198 10.577122,-8.663052 8.787408,-15.248994 -0.757862,1.235651 -1.808684,2.307588 -3.156062,3.086179 -2.140985,1.237351 -4.12331,-0.06317 -6.329997,-0.642692 -2.237141,-0.587462 -4.692655,-0.47717 -5.945774,-2.649809 L 7.2818389,13.072007 C 3.2653687,19.1808 2.7789988,27.253562 6.6939216,34.041998 Z"/>
 <path style="fill:#ffce41" d="m 41.318941,33.987257 c 3.502941,-6.073212 3.458009,-13.179081 0.537283,-18.984034 l -17.586598,0.007 c 1.448026,0.03918 2.900845,0.414132 4.248223,1.192774 2.304141,1.3316 2.087566,3.962819 2.597201,6.367657 0.444023,2.0951 1.851021,3.910746 0.692061,5.920091 L 22.883008,43.96262 c 7.293051,0.427775 14.5212,-3.187327 18.436322,-9.975763 z"/>
 <rect opacity=".2" width="18" height="18" x="-33.98" y="-33" rx="9" ry="9" transform="matrix(0,-1,-1,0,0,0)"/>
 <rect style="fill:#ffffff" width="18" height="18" x="-33" y="-33" rx="9" ry="9" transform="matrix(0,-1,-1,0,0,0)"/>
 <rect style="fill:#4587f3" width="14" height="14" x="-31" y="-31" rx="7" ry="7" transform="matrix(0,-1,-1,0,0,0)"/>
 <path style="opacity:0.2;fill:#ffffff" d="M 24 4 A 20 20 0 0 0 4 24 A 20 20 0 0 0 4.0214844 24.582031 A 20 20 0 0 1 24 5 A 20 20 0 0 1 43.978516 24.417969 A 20 20 0 0 0 44 24 A 20 20 0 0 0 24 4 z"/>
</svg>

<svg xmlns="http://www.w3.org/2000/svg" width="48" height="48" version="1">
 <circle style="opacity:0.2" cx="24" cy="25" r="20"/>
 <path style="fill:#dd4d3e" d="M 23.969,4 C 16.963,4 10.838,7.592 7.275,13.026 7.149,21.169 12.323,24.006 16.074,28.268 15.384,26.994 14.982,25.546 14.982,23.989 14.982,19.006 19.021,17.547 23.969,16.993 L 41.817,14.994 C 38.541,8.459 31.799,4 23.968,4 Z"/>
 <path style="fill:#109f5b" d="M 6.695,34.042 C 10.198,40.115 16.369,43.629 22.852,44 29.765,40.186 33.429,35.337 31.639,28.751 30.881,29.987 29.83,31.059 28.483,31.837 26.342,33.074 24.36,31.774 22.153,31.194 19.916,30.607 17.46,30.717 16.207,28.544 L 7.282,13.072 C 3.265,19.181 2.779,27.254 6.694,34.042 Z"/>
 <path style="fill:#ffce41" d="M 41.319,33.987 C 44.822,27.914 44.777,20.808 41.856,15.003 L 24.269,15.01 C 25.717,15.049 27.17,15.424 28.517,16.203 30.821,17.535 30.605,20.166 31.114,22.571 31.558,24.666 32.965,26.482 31.806,28.491 L 22.883,43.963 C 30.176,44.391 37.404,40.776 41.319,33.987 Z"/>
 <path style="opacity:0.2;fill:#ffffff" d="M 24,4 A 20,20 0 0 0 4,24 20,20 0 0 0 4.0215,24.582 20,20 0 0 1 24,5 20,20 0 0 1 43.979,24.418 20,20 0 0 0 44,24 20,20 0 0 0 24,4 Z"/>
 <circle style="opacity:0.2" cx="24" cy="25" r="9"/>
 <circle style="fill:#ffffff" cx="24" cy="24" r="9"/>
 <circle style="fill:#4587f3" cx="24" cy="24" r="7"/>
</svg>
